dist/assets/image/Sun.svg

<svg width="28" viewBox="0 0 40 40" fill="none" xmlns="http://www.w3.org/2000/svg">
<path d="M21.5 10.75V10.75C22.4895 10.75 23.2917 9.94785 23.2917 8.95834V5.37501C23.2917 4.3855 22.4895 3.58334 21.5 3.58334C20.5105 3.58334 19.7083 4.3855 19.7083 5.37501V8.95834V8.95834C19.7083 9.94785 20.5105 10.75 21.5 10.75V10.75Z" fill="white"/>
<path d="M37.625 19.7083H34.0417V19.7083C33.0522 19.7083 32.25 20.5105 32.25 21.5C32.25 22.4895 33.0522 23.2917 34.0417 23.2917H37.625V23.2917C38.6145 23.2917 39.4167 22.4895 39.4167 21.5C39.4167 20.5105 38.6145 19.7083 37.625 19.7083V19.7083Z" fill="white"/>
<path d="M10.75 21.5C10.75 20.5105 9.94785 19.7083 8.95834 19.7083H5.37501V19.7083C4.3855 19.7083 3.58334 20.5105 3.58334 21.5C3.58334 22.4895 4.3855 23.2917 5.37501 23.2917H8.95834V23.2917C9.94785 23.2917 10.75 22.4895 10.75 21.5V21.5Z" fill="white"/>
<path d="M11.1442 8.95833V8.95833C10.4169 8.27062 9.2698 8.30271 8.58208 9.03C7.89437 9.75729 7.92646 10.9044 8.65375 11.5921V11.5921L11.2337 14.0825V14.0825C11.5836 14.4203 12.0557 14.6014 12.5417 14.5842V14.5842C13.0293 14.5823 13.4952 14.3817 13.8317 14.0288V14.0288C14.5263 13.3299 14.5263 12.2013 13.8317 11.5025L11.1442 8.95833Z" fill="white"/>
<path d="M30.4583 14.5842V14.5842C30.9196 14.5823 31.3624 14.4026 31.6946 14.0825L34.2746 11.5921V11.5921C34.9587 10.8772 34.9339 9.74307 34.219 9.0589C33.5685 8.4363 32.5569 8.39326 31.8558 8.95834L29.2758 11.5025V11.5025C28.5812 12.2013 28.5812 13.3299 29.2758 14.0288V14.0288C29.586 14.3561 30.0083 14.5545 30.4583 14.5842L30.4583 14.5842Z" fill="white"/>
<path d="M21.5 32.25V32.25C20.5105 32.25 19.7083 33.0522 19.7083 34.0417V34.0417V37.625V37.625C19.7083 38.6145 20.5105 39.4167 21.5 39.4167C22.4895 39.4167 23.2917 38.6145 23.2917 37.625V34.0417C23.2917 33.0522 22.4895 32.25 21.5 32.25V32.25Z" fill="white"/>
<path d="M31.7663 28.9175V28.9175C31.0538 28.2298 29.9188 28.2498 29.2311 28.9623C28.5434 29.6747 28.5634 30.8098 29.2759 31.4975L31.8559 34.0417V34.0417C32.188 34.3618 32.6308 34.5415 33.0921 34.5433V34.5433C33.5771 34.5462 34.0426 34.3522 34.3821 34.0058V34.0058C35.0847 33.309 35.0893 32.1746 34.3925 31.4721C34.389 31.4686 34.3856 31.4651 34.3821 31.4617L31.7663 28.9175Z" fill="white"/>
<path d="M11.2338 28.9175L8.65375 31.4079V31.4079C7.9512 32.1047 7.94655 33.2391 8.64336 33.9417C8.64681 33.9452 8.65027 33.9486 8.65375 33.9521V33.9521C8.99327 34.2985 9.45872 34.4924 9.94375 34.4896V34.4896C10.3854 34.4933 10.8129 34.3338 11.1442 34.0417L13.7242 31.5512V31.5512C14.4366 30.8635 14.4567 29.7285 13.769 29.016C13.0813 28.3036 11.9462 28.2835 11.2338 28.9712V28.9175Z" fill="white"/>
<path d="M21.5 14.3333V14.3333C17.542 14.3333 14.3333 17.542 14.3333 21.5C14.3333 25.4581 17.542 28.6667 21.5 28.6667C25.4581 28.6667 28.6667 25.4581 28.6667 21.5C28.6667 17.542 25.4581 14.3333 21.5 14.3333V14.3333Z" fill="white"/>
</svg>

<svg xmlns="http://www.w3.org/2000/svg" width="28" viewBox="0 0 40 40" fill="#fff"><path d="M21.5 10.75a1.79 1.79 0 0 0 1.792-1.792V5.375a1.792 1.792 0 1 0-3.583 0v3.583A1.79 1.79 0 0 0 21.5 10.75zm16.125 8.958h-3.583a1.792 1.792 0 1 0 0 3.583h3.583a1.792 1.792 0 1 0 0-3.583zM10.75 21.5a1.79 1.79 0 0 0-1.792-1.792H5.375a1.792 1.792 0 1 0 0 3.583h3.583A1.79 1.79 0 0 0 10.75 21.5zm.394-12.542a1.81 1.81 0 1 0-2.49 2.634l2.58 2.5a1.79 1.79 0 0 0 1.308.502 1.79 1.79 0 0 0 1.29-.555 1.79 1.79 0 0 0 0-2.526L11.145 8.97zm19.314 5.626a1.79 1.79 0 0 0 1.236-.502l2.58-2.5a1.79 1.79 0 0 0-2.419-2.634l-2.58 2.544a1.79 1.79 0 0 0 0 2.526 1.79 1.79 0 0 0 1.183.555zM21.5 32.25a1.79 1.79 0 0 0-1.792 1.792v3.583a1.792 1.792 0 1 0 3.583 0v-3.583A1.79 1.79 0 0 0 21.5 32.25zm10.266-3.332a1.79 1.79 0 0 0-2.535.045c-.687.713-.668 1.848.045 2.535l2.58 2.544a1.79 1.79 0 0 0 2.536-2.57l-2.626-2.555zm-20.532 0l-2.58 2.5a1.79 1.79 0 0 0-.01 2.534l.01.01a1.79 1.79 0 0 0 1.29.538c.442.004.87-.156 1.2-.448l2.58-2.5c.712-.688.732-1.823.045-2.535s-1.823-.732-2.535-.045v-.054zM21.5 14.333a7.17 7.17 0 0 0-7.167 7.167 7.17 7.17 0 0 0 7.167 7.167 7.17 7.17 0 0 0 7.167-7.167 7.17 7.17 0 0 0-7.167-7.167z"/></svg>
